X:145
T:Patapan
L:1/8
M:2/2
Z:Andy Hornby
%%TUNEURL: http://www.leeds.ac.uk/music/Info/RRTuneBk/gettune/00000da0.html
%%ID:00000da0
K:C
A2A2e2e2|d2e2c2Bc|d2B2e4|c4B4:|
|:B2c2B2^G2|A2B2c4|1ABcd e4|dedc B4:|2d2cd e4|dcBc A4|]
